src/assets/outline/SecurityUser.svg

<svg width="24" height="24" viewBox="0 0 24 24"  xmlns="http://www.w3.org/2000/svg">
<path d="M11.9999 22.7602C10.9099 22.7602 9.82992 22.4402 8.97992 21.8102L4.6799 18.6002C3.5399 17.7502 2.6499 15.9802 2.6499 14.5602V7.13019C2.6499 5.59019 3.77992 3.95019 5.22992 3.41019L10.2199 1.5402C11.2099 1.1702 12.7699 1.1702 13.7599 1.5402L18.7599 3.41019C20.2099 3.95019 21.3399 5.59019 21.3399 7.13019V14.5602C21.3399 15.9802 20.4499 17.7502 19.3099 18.6002L15.0099 21.8102C14.1699 22.4402 13.0899 22.7602 11.9999 22.7602ZM10.7499 2.94019L5.75992 4.81018C4.89992 5.13018 4.1499 6.21019 4.1499 7.13019V14.5602C4.1499 15.5102 4.81992 16.8402 5.56992 17.4002L9.8699 20.6102C11.0199 21.4702 12.9699 21.4702 14.1199 20.6102L18.4199 17.4002C19.1799 16.8302 19.8399 15.5002 19.8399 14.5602V7.13019C19.8399 6.22019 19.0899 5.14018 18.2299 4.81018L13.2399 2.94019C12.5799 2.69019 11.4199 2.69019 10.7499 2.94019Z" />
<path d="M11.9999 11.6702C11.9799 11.6702 11.9599 11.6702 11.9299 11.6702C10.4799 11.6302 9.41992 10.5202 9.41992 9.17017C9.41992 7.79017 10.5499 6.66016 11.9299 6.66016C13.3099 6.66016 14.4399 7.79017 14.4399 9.17017C14.4299 10.5302 13.3699 11.6301 12.0199 11.6801C12.0099 11.6701 12.0099 11.6702 11.9999 11.6702ZM11.9299 8.16016C11.3699 8.16016 10.9199 8.61017 10.9199 9.17017C10.9199 9.72017 11.3499 10.1601 11.8899 10.1801C11.8899 10.1801 11.9399 10.1801 11.9999 10.1801C12.5299 10.1501 12.9399 9.71017 12.9399 9.17017C12.9499 8.61017 12.4899 8.16016 11.9299 8.16016Z" />
<path d="M11.9998 17.35C11.1398 17.35 10.2698 17.12 9.59982 16.67C8.92982 16.23 8.5498 15.58 8.5498 14.89C8.5498 14.2 8.92982 13.55 9.59982 13.1C10.9498 12.2 13.0598 12.21 14.3998 13.1C15.0698 13.54 15.4498 14.19 15.4498 14.88C15.4498 15.57 15.0698 16.22 14.3998 16.67C13.7298 17.12 12.8598 17.35 11.9998 17.35ZM10.4298 14.34C10.1798 14.5 10.0398 14.7 10.0498 14.88C10.0498 15.06 10.1898 15.26 10.4298 15.42C11.2698 15.98 12.7298 15.98 13.5698 15.42C13.8198 15.26 13.9598 15.06 13.9598 14.88C13.9598 14.7 13.8198 14.5 13.5798 14.34C12.7398 13.79 11.2698 13.79 10.4298 14.34Z" />
</svg>

<?xml version="1.0" encoding="UTF-8"?>
<svg width="24" height="24" viewBox="0 0 24 24" xmlns="http://www.w3.org/2000/svg">
 <path d="m12 22.76c-1.09 0-2.17-0.32-3.02-0.95l-4.3-3.21c-1.14-0.85-2.03-2.62-2.03-4.04v-7.43c0-1.54 1.13-3.18 2.58-3.72l4.99-1.87c0.99-0.37 2.55-0.37 3.54 0l5 1.87c1.45 0.54 2.58 2.18 2.58 3.72v7.43c0 1.42-0.89 3.19-2.03 4.04l-4.3 3.21c-0.84 0.63-1.92 0.95-3.01 0.95zm-1.25-19.82-4.99 1.87c-0.86 0.32-1.61 1.4-1.61 2.32v7.43c0 0.95 0.67002 2.28 1.42 2.84l4.3 3.21c1.15 0.86 3.1 0.86 4.25 0l4.3-3.21c0.76-0.57 1.42-1.9 1.42-2.84v-7.43c0-0.91-0.75-1.99-1.61-2.32l-4.99-1.87c-0.66-0.25-1.82-0.25-2.49 0z"/>
 <path d="m12 11.67h-0.07c-1.45-0.04-2.51-1.15-2.51-2.5 0-1.38 1.13-2.51 2.51-2.51s2.51 1.13 2.51 2.51c-0.01 1.36-1.07 2.4599-2.42 2.5099-0.01-0.01-0.01-0.0099-0.02-0.0099zm-0.07-3.51c-0.56 0-1.01 0.45001-1.01 1.01 0 0.55 0.43 0.98993 0.97 1.0099h0.11c0.53-0.03 0.94-0.46993 0.94-1.0099 0.01-0.56-0.45-1.01-1.01-1.01z"/>
 <path d="m12 17.35c-0.86 0-1.73-0.23-2.4-0.68-0.67-0.44-1.05-1.09-1.05-1.78s0.38002-1.34 1.05-1.79c1.35-0.9 3.46-0.89 4.8 0 0.67 0.44 1.05 1.09 1.05 1.78s-0.38 1.34-1.05 1.79-1.54 0.68-2.4 0.68zm-1.57-3.01c-0.25 0.16-0.39 0.36-0.38 0.54 0 0.18 0.14 0.38 0.38 0.54 0.84 0.56 2.3 0.56 3.14 0 0.25-0.16 0.39-0.36 0.39-0.54s-0.14-0.38-0.38-0.54c-0.84-0.55-2.31-0.55-3.15 0z"/>
</svg>
